X:1
T:Hvalite Gospoda s nebes
T:Hvalite Gospoda s nebes
T:Atanas Badev (1860-1908)
C:Atanas Badev (1860-1908)
%%score [ 1 2 3 4 ]
L:1/8
Q:1/4=60
M:4/4
K:G
V:1 treble nm="Soprano"
V:2 treble nm="Alto"
V:3 treble-8 nm="Tenor"
V:4 bass nm="Bass"
V:1
"^Adagio" z2 | z8 | z4 z2 G2 | (d4 e4) | d4 c4 | (c2 Bc d2 ^c2 | d4) B4 | (c8 | B4) A4 | G4 d4 | %10
w: ||Hva-|li- *|te, hva-|li- * * * *|* te|Gos-|* po-|da s~ne-|
 (d6 c2) | z (B^c^d) (e2 BA) | G2 e2 (c3 A) | B2 z2 z2 z B | A4 G2 z2 | z (cde) =f2 e2 | %16
w: bes. _|Hva- * * li- * *|te, hva- li- *|te, hva-|li- te,|hva- * * li- te,|
 z (def) g2 e2 | d3 c (cB) A2 | G4 z2 F2 | (F4 B4) | (^A4 B2) ^c2 | (d f2 e d4) | ^c6 F2 | %23
w: hva- * * li- te|Gos- po- da _ s~ne-|bes, hva-|li- *|te, _ hva-|li- * * *|te, hva-|
 B4 (B2 e2) | (e2 d^c d2) e2 | B6 ^A2 | B4 z2 B2 | (B2 A2- AD G2) | (F3 G A2) B2 | (A2 d4 ed) | %30
w: li- te _|Gos- * * * po-|da s~ne-|bes, hva-|li- * * * *|te, _ _ hva-|li- * * *|
 (^c4 d2) =c2 | (cABc) B2 A2 | (A2 de f4) | (g4 ^c4) | d4 z2 D2 | (G4 _B4) | A6 G2 | (d6 c2) | %38
w: te, _ hva-|li- * * * te E-|go _ _ _|v~vish- *|nih. Hva-|li- *|te, hva-|li- *|
 (_B4 A2) B2 | (G6 c2- | c_B A2 G2 d2) | (d6 ^c2) | d6 z2 | (B2 cB A2) G2 | c2 d2 (e2 G2) | %45
w: te _ E-|go _|_ _ _ _ _|v~vish- *|nih.|Al- * * * li-|lu- i- ia, _|
 A2 (Bc) d3 c | B6 z2 | (A3 c- c B2) A | B2 A2 (G2 d2) | (dG c2- c B2) A | B4 A4 | G6 z2 |] %52
w: al- li- * lu- i-|ia,|al- * * * li-|lu- i- ia, _|al- * * * * li-|lu- i-|ia.|
V:2
 z2 | z8 | z8 | z8 | z4 z2 D2 | (G4 B4) | A4 G4 | (G2 F2 G2 A2) | (A2 G4 F2) | G2 D2 D2 G2 | %10
w: ||||Hva-|li- *|te, hva-|li- * * *|te _ _|Gos- po- da s~ne-|
 F6 z2 | (G2 F2) (E3 ^D) | E2 E2 (E2 D2) | D2 z2 z4 | z (DEF) G2 G2 | (G8 | A4) G4 | G6 (GF) | %18
w: bes.|Hva- * li- *|te, hva- li- *|te,|hva- * * li- te|Gos-|* po-|da s~ne- *|
 D4 z2 D2 | (D2 E2 F4) | F6 F2 | (F6 B2) | (B2 ^A^G A2) F2 | F4 E4 | F6 G2 | F4 E4 | D4 z2 D2 | %27
w: bes, hva-|li- * *|te, hva-|li- *|te, _ _ _ hva-|li- te|Gos- po-|da s~ne-|bes, hva-|
 (D3 !courtesy!=C B,3 ^C) | (D3 G- GF) G2 | A8 | (A2 G2) F4 | G4 G2 E2 | A8 | G8 | F4 z2 D2 | %35
w: li- * * *|te, _ _ _ hva-|li-|te, _ hva-|li- te E-|go|v~vish-|nih. Hva-|
 (D4 G4) | (GEFG F2) D2 | (D4 A4) | (AD G4) G2 | (G8- | G3 F G2 _B2) | (A4 G4) | F6 z2 | %43
w: li- *|te, _ _ _ _ hva-|li- *|te _ _ E-|go|_ _ _ _|v~vish- *|nih.|
 (G4- GF) G2 | (E G2) =F E4 | E2 A2 B2 A2 | (A2 F2 ^G2) z2 | E2 F2 =G4 | (G3 F) G4 | G6 G2 | %50
w: Al- * * li-|lu- * i- ia,|al- li- lu- i-|ia, _ _|al- li- lu-|i- * ia,|al- li-|
 G6 F2 | D6 z2 |] %52
w: lu- i-|ia.|
V:3
 z2 | z8 | z8 | z8 | z8 | z8 | z4 z2 G2 | (d4 e4) | (d4 c4) | d3 d B2 G2 | A6 z2 | z8 | z8 | %13
w: ||||||Hva-|li- *|te _|Gos- po- da s~ne-|bes.|||
 z (GAB) c2 G2 | d3 c B2 B2 | (c4 d3 G) | c4 d3 c | (cB) A2 (d3 c | B4) z2 A2 | (B4 d2 ed) | %20
w: Hva- * * li- te|Gos- po- da, hva-|li- * *|te Gos- po-|da _ s~ne- bes, _|_ hva-|li- * * *|
 (^c4 B3) ^A | (B2 ^c2 f4) | f6 ^c2 | d4 B4 | B6 B2 | (d2 ^cB) c4 | B4 z4 | z8 | z4 z2 G2 | %29
w: te, _ hva-|li- * *|te, hva-|li- te|Gos- po-|da _ _ s~ne-|bes,||hva-|
 (d4 f4) | e4 d4 | d4 d3 ^c | (d6 =c2) | (B4 A4) | A4 z2 F2 | (G4 d4) | (d4- d c2) _B | (A4 d4) | %38
w: li- *|te, hva-|li- te E-|go _|v~vish- *|nih. Hva-|li- *|te, _ _ hva-|li- *|
 d6 d2 | (c4 _e4 | d8) | (fdef e4) | d6 z2 | d6 d2 | c3 B c4 | c2 e2 e2 e2 | (e6 d2) | %47
w: te E-|go _|_|v~vish- * * * *|nih.|Al- li-|lu- i- ia,|al- li- lu- i-|ia, _|
 (c3 A d2) e2 | d3 d d4 | (e4 d2) c2 | (d2 G2) c4 | B6 z2 |] %52
w: al- * * li-|lu- i- ia,|al- * li-|lu- * i-|ia.|
V:4
 D,2 | (G,4 B,4) | A,4 G,4 | (F,2 G,2 E,2 C,2- | C,2 B,,2) A,,2 F,,2 | (G,,4 G,4- | %6
w: Hva-|li- *|te, hva-|li- * * *|* * te, hva-|li- *|
 G,2 F,2) G,2 E,2 | (D,4 C,4) | (G,,4 A,,4) | B,,3 A,, G,,2 B,,2 | D,6 z2 | (E,2 B,,2) G,2 F,2 | %12
w: * * te, hva-|li- *|te _|Gos- po- da s~ne-|bes.|Hva- * li- te,|
 z (E,F,G,) A,2 F,2 | G,4 E,4 | F,2 D,2 G,2 =F,2 | (E,2 C,2- C,B,,) C,2 | (A,,4 B,,2) C,2 | %17
w: hva- * * li- te|Gos- po-|da, hva- li- te|Gos- * * * po-|da _ s~ne-|
 (D,2 E,2 D,4 | G,,4) z2 D,2 | B,,8 | (F,2 E,2- E,D,) ^C,2 | (B,,3 ^A,, B,,^C, D,2) | %22
w: bes, _ _|_ hva-|li-|te, _ _ _ hva-|li- * * * *|
 [F,,F,]6 ^A,,2 | (B,,2 B,A,) G,4 | F,6 E,2 | F,4 F,,4 | B,,4 z2 B,2 | (G,3 F, G,2 E,2) | %28
w: te, hva-|li- * * te|Gos- po-|da s~ne-|bes, hva-|li- * * *|
 (D,2 CB, A,2) G,2 | (G,2 F,E, D,4) | A,4 B,3 A, | G,8 | F,2 F,2 D,4 | (E,2 F,G, A,2 A,,2) | %34
w: te, _ _ _ hva-|li- * * *|te, hva- *|li-|te E- go|v~vish- * * * *|
 D,4 z2 !courtesy!=C,2 | (C,2 _B,,A,, G,,2 B,,2) | D,6 G,2 | (G,E,F,G, F,4) | G,6 G,2 | %39
w: nih. Hva-|li- * * * *|te, hva-|li- * * * *|te E-|
 (^D,2 =D,2 C,4 | G,2) A,2 (_B,2 G,2) | (A,6 A,,2) | D,6 z2 | (G,4 A,2) B,2 | C2 G,2 (C,3 B,,) | %45
w: go, _ _|_ E- go _|v~vish- *|nih.|Al- * li-|lu- i- ia, _|
 A,,2 A,,2 (A,,^G,,) A,,2 | [E,,E,]6 z2 | (A,4 G,2) C,2 | G,,2 A,,2 B,,4 | (C,3 E, G,2) E,2 | %50
w: al- li- lu- * i-|ia,|al- * li-|lu- i- ia,|al- * * li-|
 D,4 [D,,D,]4 | G,,6 z2 |] %52
w: lu- i-|ia.|

